icon-svg/ceiling-fair-semiflush.svg

<svg xmlns="http://www.w3.org/2000/svg" fill="#44739e" viewBox="0 0 24 24"><path d="M11.96 8.78C8.01 8.78.55 9.4.55 11.74l.04 4.24c-.04 1.99 7.54 2.77 11.38 2.77 3.86 0 11.06-.6 11.38-2.81l.03-4.19c0-2.35-7.47-2.97-11.42-2.97m0 8.97c-6.74 0-10.41-1.3-10.41-1.96 0-.52 2.22-1.41 6.35-1.78 1.74-.09 3.63-.13 5.51-.15 5.82.17 8.97 1.32 8.97 1.94 0 .65-3.68 1.95-10.42 1.95m.03-2.53c-.22 0-2.15.02-2.15.79s1.93.79 2.15.79 2.16-.02 2.16-.79-1.94-.79-2.16-.79m-.57-8.05v1.61h1V7.17c1.24-.07 2.5-.44 2.5-1.29v-.42c0-.96-1.61-1.3-2.99-1.3s-2.99.34-2.99 1.3v.42c-.01.85 1.24 1.21 2.48 1.29"/></svg>

<?xml version="1.0" encoding="UTF-8"?>
<svg width="32px" height="32px" viewBox="0 0 32 32" version="1.1" fill="#44739e" xmlns="http://www.w3.org/2000/svg" xmlns:xlink="http://www.w3.org/1999/xlink">
            <path d="M11.96,8.78c-3.95,0-11.41,0.62-11.41,2.96l0.04,4.24c-0.04,1.99,7.54,2.77,11.38,2.77 c3.86,0,11.06-0.6,11.38-2.81l0.03-4.19C23.38,9.4,15.91,8.78,11.96,8.78z M11.96,17.75c-6.74,0-10.41-1.3-10.41-1.96 c0-0.52,2.22-1.41,6.35-1.78c1.74-0.09,3.63-0.13,5.51-0.15c5.82,0.17,8.97,1.32,8.97,1.94C22.38,16.45,18.7,17.75,11.96,17.75 M11.99,15.22c-0.22,0-2.15,0.02-2.15,0.79c0,0.77,1.93,0.79,2.15,0.79s2.16-0.02,2.16-0.79 S12.21,15.22,11.99,15.22z M11.42,7.17v1.61l1,0V7.17c1.24-0.07,2.5-0.44,2.5-1.29V5.46c0-0.96-1.61-1.3-2.99-1.3 c-1.38,0-2.99,0.34-2.99,1.3v0.42C8.93,6.73,10.18,7.09,11.42,7.17z"></path>

</svg>
